X:1
T:Lord Ronald
M:3/4
L:1/4
K:C
 C| D E G| c2 B| c EE/2-D/2| D- C C| D E G| c- B A| G EE/2-D/2| D2 c/2c/2|\
 B3/2 A/2 d| d A A/2B/2| c3/2 E/2E/2-D/2| D- C c/2c/2| B3/2 A/2 d|\
 d A A| G3/2 E/2E/2-D/2| D2||
